!!!ONB: MCCC : IFC0050_03 : Extracted Monophonic Melody
!!!COM: Chopin, Frédéric
!!!OPR: Mazurkas
!!!OMV: 3
!!!SCT: Op.24
!!!ODT: 1834///
**kern
*thru
*staff1
*Ipiano
*>A
*clefG2
*k[f#c#g#d#]
*E:
*M3/4
*MM200
=5
8C#
8BB
4AA
4GG#
=6
2.EE
=7
8C#
16r
16BB
4AA
4GG#
=8
2EE
4B
=9
8B
16r
16e
4g#
4b
=10
8ee
16r
16g#
4b
4ee
=11
12ff#
12gg#
12ff#
8ee#
8ff#
8gg#
8aa
=12
8ccc#
16r
16bb
2gg#
=13
12ff#
12gg#
12ff#
8ee#
8ff#
8gg#
8aa
=14
8ccc#
16r
16bb
2gg#
=15
8ff#
16r
16ee
2cc#
=16
8dd#
16r
[16b
2b]
=17
8GG#
8FF#
4EE
4DD#
=18
2.BBB
=19
8GG#
16r
16FF#
4EE
4DD#
=20
2BBB
4r
=21
8B
16r
16e
4g#
4b
=22
8ee
16r
16g#
4b
4ee
=23
12ff#
12gg#
12ff#
8ee#
8ff#
8gg#
8aa
=24
8ccc#
16r
16bb
2gg#
=25
12ff#
12gg#
12ff#
8ee#
8ff#
8gg#
8aa
=26
8ccc#
16r
16bb
2gg#
=27
8ff#
16r
16ee
2cc#
=28
8dd#
16r
[16b
2b]
=29
8GG#
8FF#
4EE
4DD#
=30
2.BBB
=31
8GG#
16r
16FF#
4EE
4DD#
=32
2BBB
4r
=33
*>B
8.ff#
16ff#
4ff#
4r
=34
8aa
16r
16aa
4aa
8gg#
8ff#
=35
8.ee
16dd#
4cc#
4ee
=36
8.ee
16dd#
4cc#
4ee
=37
8.ff#
16ff#
4ff#
4r
=38
8aa
16r
16aa
4aa
8gg#
8ff#
=39
8ee
16r
16cc#
4b
4ee
=40
8ee
16r
16a
4b
4ee
=41
*>B
8.ff#
16ff#
4ff#
4r
=42
8aa
16r
16aa
4aa
8gg#
8ff#
=43
8.ee
16dd#
4cc#
4ee
=44
8.ee
16dd#
4cc#
4ee
=45
8.ff#
16ff#
4ff#
4r
=46
8aa
16r
16aa
4aa
8gg#
8ff#
=47
8ee
16r
16cc#
4b
4ee
=48
8ee
16r
16a
4b
4ee
=49
*>C
8bb
16r
16aa#
8aa
8b
8gg#
8ff#
=50
8ee
8b
8gg#
8aa#
4bb[
=51
8bb]
8aa#
8aa
8b
8gg#
8ff#
=52
8ee
8b
8dd#
8cc#
4b
=53
8bb
16r
16aa#
8aa
8b
8gg#
8ff#
=54
8ee
8b
8gg#
8aa#
4bb[
=55
8bb]
8aa#
8ff#
8aa
8gg#
8ee
=56
8ff#
8dd#
8ee
8cc#
8ee
8cc
=57
8.b
16g#
4e
8f#
8g#
=58
8a
8cc#
4.ee
8ee#
=59
8ff#
8a#
4b
8cc#
8dd
=60
8ee
8g#
4a
8b
8cc#
=61
8.b
16g#
4e
8f#
8g#
=62
8a
8cc#
4.ee
8ee#
=63
8ff#
8a#
4b
8cc#
8g#
=64
4a
4aa
8r
8a#
=65
8.b
16g#
4e
8f#
8g#
=66
8a
8cc#
4.ee
8ee#
=67
8ff#
8a#
4b
8cc#
8dd
=68
8ee
8g#
4a
8b
8cc#
=69
8b
16r
16g#
4e
8f#
8g#
=70
8a
8cc#
4.ee
8ee#
=71
8ff#
8a#
4b
8cc#
8g#
=72
4a
4aa
4r
=73
8F#
8E
4D
4C#
=74
2.AA
=75
8F#
16r
16E
4D
4C#
=76
2AA
4e
=77
8B
16r
16e
4g#
4b
=78
8ee
16r
16g#
4b
4ee
=79
12ff#
12gg#
12ff#
8ee#
8ff#
8gg#
8aa
=80
8ccc#
16r
16bb
2gg#
=81
12ff#
12gg#
12ff#
8ee#
8ff#
8gg#
8aa
=82
8ccc#
16r
16bb
2gg#
=83
8ff#
16r
16ee
2cc#
=84
8dd#
16r
[16b
2b]
=85
8GG#
8FF#
4EE
4DD#
=86
2.BBB
=87
8GG#
16r
16FF#
4EE
4DD#
=88
2BBB
4r
=89
8B
16r
16e
4g#
4b
=90
8ee
16r
16g#
4b
4ee
=91
12ff#
12gg#
12ff#
8ee#
8ff#
8gg#
8aa
=92
8ccc#
16r
16bb
2gg#
=93
12ff#
12gg#
12ff#
8ee#
8ff#
8gg#
8aa
=94
8ccc#
16r
16bb
2gg#
=95
8ff#
8ff#
4ff#
4gg#
=96
2ee
4eee
=97
8ff#
8ff#
4ff#
4gg#
=98
4ee
4eee
4r
==
*-
